build/svg/cmd/sc_insertindexesentry.svg

<?xml version="1.0" encoding="UTF-8" standalone="no"?>
<svg
   xmlns:dc="http://purl.org/dc/elements/1.1/"
   xmlns:cc="http://creativecommons.org/ns#"
   xmlns:rdf="http://www.w3.org/1999/02/22-rdf-syntax-ns#"
   xmlns:svg="http://www.w3.org/2000/svg"
   xmlns="http://www.w3.org/2000/svg"
   xmlns:sodipodi="http://sodipodi.sourceforge.net/DTD/sodipodi-0.dtd"
   xmlns:inkscape="http://www.inkscape.org/namespaces/inkscape"
   viewBox="0 0 16 16"
   version="1.1"
   id="svg6"
   sodipodi:docname="sc_insertindexesentry.svg"
   inkscape:version="0.92.5 (2060ec1f9f, 2020-04-08)"
   inkscape:export-filename="/home/jupiter007/Libreoffice yaru theme fullcolor/build/cmd/sc_insertindexesentry.png"
   inkscape:export-xdpi="95"
   inkscape:export-ydpi="95">
  <metadata
     id="metadata12">
    <rdf:RDF>
      <cc:Work
         rdf:about="">
        <dc:format>image/svg+xml</dc:format>
        <dc:type
           rdf:resource="http://purl.org/dc/dcmitype/StillImage" />
      </cc:Work>
    </rdf:RDF>
  </metadata>
  <defs
     id="defs10" />
  <sodipodi:namedview
     pagecolor="#ffffff"
     bordercolor="#666666"
     borderopacity="1"
     objecttolerance="10"
     gridtolerance="10"
     guidetolerance="10"
     inkscape:pageopacity="0"
     inkscape:pageshadow="2"
     inkscape:window-width="1920"
     inkscape:window-height="1011"
     id="namedview8"
     showgrid="true"
     showguides="false"
     inkscape:zoom="59"
     inkscape:cx="6.2477853"
     inkscape:cy="7.1080575"
     inkscape:window-x="1920"
     inkscape:window-y="32"
     inkscape:window-maximized="1"
     inkscape:current-layer="svg6">
    <inkscape:grid
       type="xygrid"
       id="grid822" />
  </sodipodi:namedview>
  <path
     inkscape:connector-curvature="0"
     style="fill:#762572"
     d="M 7.0000004,7.9999995 V 11 H 12 V 7.9999995 Z"
     id="path4-2" />
  <path
     sodipodi:nodetypes="cccscsccccccccscscccccc"
     inkscape:connector-curvature="0"
     id="path4237-1"
     d="M 5.0108446,0.999859 C 3.7526446,1.0143591 2.8319536,0.969255 2.0792036,1.3846247 1.702834,1.5922846 1.405973,1.9440117 1.241313,2.3826715 1.076643,2.8213415 1.016704,3.342259 1.016704,3.999859 v 1.4882811 5.5124429 c 0,0.65761 0.0599,1.178577 0.224609,1.617188 0.16468,0.438611 0.461531,0.788524 0.8378906,0.996093 0.75272,0.41513 1.673541,0.371649 2.931641,0.386719 h 0.002 6.0057864 0.0039 c 1.25819,-0.0145 2.178891,0.0306 2.931641,-0.384766 0.37637,-0.20766 0.673221,-0.559386 0.837891,-0.998046 0.164539,-0.438671 0.224618,-0.959578 0.224618,-1.617188 V 5.466656 3.999859 c 0,-0.6576 -0.0599,-1.1785776 -0.224609,-1.6171875 C 14.627392,1.9440716 14.330541,1.5941377 13.954181,1.3865779 13.201411,0.9714478 12.28058,1.0149391 11.02249,0.999859 h -0.002 -6.0057864 z"
     style="font-style:normal;font-variant:normal;font-weight:normal;font-stretch:normal;font-size:15px;line-height:125%;font-family:Ubuntu;-inkscape-font-specification:Ubuntu;text-align:center;letter-spacing:0px;word-spacing:0px;writing-mode:lr-tb;text-anchor:middle;display:inline;opacity:0.6;fill:#000000;fill-opacity:1;stroke:none;stroke-width:0.99980211" />
  <path
     inkscape:connector-curvature="0"
     id="path1993"
     d="M 5,2 C 3.443419,2.010796 4.8903788,1.988248 3.3404278,2.038775 c -0.461229,0.042668 -1.016188,0.2064193 -1.15534,0.7099666 -0.218994,0.6353465 -0.108414,1.3337872 -0.145796,1.9819244 -0.0078,2.2970846 -0.02297,4.5965687 0.02152,6.885921 0.0391,0.461929 0.202551,1.012666 0.698756,1.163666 0.632456,0.225082 1.284144,0.12274 1.935974,0.154298 1.424235,0.0068 -0.1498058,0.01102 1.2760512,0.01131 1.704531,3.5e-4 4.408684,-0.005 6.107486,-0.01851 0.511911,-0.01201 1.183699,0.01993 1.584745,-0.405191 0.421097,-0.539783 0.287073,-1.268021 0.322745,-1.903787 0.01187,-2.4443234 0.02769,-4.9112358 -0.0219,-7.3569353 C 13.915389,2.8593974 13.794677,2.3984857 13.38953,2.2169626 12.721361,1.9228651 11.963325,2.0489437 11.263609,2.0113898 9.5092026,1.9995873 6.754439,1.9989054 5,2 Z"
     style="opacity:1;vector-effect:none;fill:#ffffff;fill-opacity:1;stroke:none;stroke-width:1;stroke-linecap:round;stroke-linejoin:bevel;stroke-miterlimit:4;stroke-dasharray:none;stroke-dashoffset:0;stroke-opacity:1"
     sodipodi:nodetypes="cccccccsccccccc" />
  <rect
     y="10"
     x="6"
     height="1"
     width="7"
     id="rect823"
     style="opacity:1;fill:#fa9381;fill-opacity:1;stroke:none;stroke-width:1.87082875;stroke-linecap:round;stroke-linejoin:round;stroke-miterlimit:4;stroke-dasharray:none;stroke-opacity:1" />
  <circle
     style="opacity:1;vector-effect:none;fill:#46a926;fill-opacity:1;stroke:none;stroke-width:3.49999976;stroke-linecap:butt;stroke-linejoin:round;stroke-miterlimit:4;stroke-dasharray:none;stroke-dashoffset:0;stroke-opacity:1"
     id="path2644"
     cy="12.499999"
     cx="12.499999"
     r="3.5" />
  <path
     inkscape:connector-curvature="0"
     id="path1063"
     overflow="visible"
     font-weight="400"
     style="color:#000000;font-weight:400;line-height:normal;font-family:sans-serif;text-indent:0;text-align:start;text-decoration:none;text-decoration-line:none;text-decoration-style:solid;text-decoration-color:#000000;text-transform:none;white-space:normal;overflow:visible;isolation:auto;mix-blend-mode:normal;fill:#ffffff;fill-opacity:1;marker:none"
     d="M 12,9.9999995 V 12 H 9.9999994 v 1 H 12 v 2 h 1 v -2 h 2 V 12 H 13 V 9.9999995 Z" />
  <rect
     style="opacity:1;fill:#fa9381;fill-opacity:1;stroke:none;stroke-width:1.87082875;stroke-linecap:round;stroke-linejoin:round;stroke-miterlimit:4;stroke-dasharray:none;stroke-opacity:1"
     id="rect832"
     width="7"
     height="1"
     x="6"
     y="8" />
  <circle
     style="opacity:1;fill:#fa9381;fill-opacity:1;stroke:none;stroke-width:4;stroke-linecap:round;stroke-linejoin:round;stroke-miterlimit:4;stroke-dasharray:none;stroke-opacity:1"
     id="path834"
     cx="4"
     cy="9"
     r="1" />
  <rect
     y="4"
     x="6"
     height="1"
     width="7"
     id="rect836"
     style="opacity:1;fill:#232629;fill-opacity:1;stroke:none;stroke-width:1.87082875;stroke-linecap:round;stroke-linejoin:round;stroke-miterlimit:4;stroke-dasharray:none;stroke-opacity:1" />
  <circle
     r="1"
     cy="5"
     cx="4"
     id="circle838"
     style="opacity:1;fill:#232629;fill-opacity:1;stroke:none;stroke-width:4;stroke-linecap:round;stroke-linejoin:round;stroke-miterlimit:4;stroke-dasharray:none;stroke-opacity:1" />
  <rect
     style="opacity:1;fill:#232629;fill-opacity:1;stroke:none;stroke-width:1.87082875;stroke-linecap:round;stroke-linejoin:round;stroke-miterlimit:4;stroke-dasharray:none;stroke-opacity:1"
     id="rect825"
     width="7"
     height="1"
     x="6"
     y="6" />
</svg>

<svg xmlns="http://www.w3.org/2000/svg" viewBox="0 0 16 16"><path d="M7 8v3h5V8z" fill="#762572"/><path d="M5.01 1c-1.257.014-2.178-.03-2.93.385a1.88 1.88 0 00-.839.998c-.164.438-.224.96-.224 1.617V11c0 .657.06 1.178.224 1.617.165.438.462.788.838.996.753.415 1.674.372 2.932.387h6.012c1.258-.015 2.178.03 2.931-.385a1.88 1.88 0 00.838-.998c.165-.439.225-.96.225-1.617V4c0-.658-.06-1.179-.225-1.617a1.875 1.875 0 00-.838-.996C13.201.97 12.281 1.015 11.022 1H5.015z" style="line-height:125%;-inkscape-font-specification:Ubuntu;text-align:center" font-weight="400" font-size="15" font-family="Ubuntu" letter-spacing="0" word-spacing="0" text-anchor="middle" opacity=".6"/><path d="M5 2c-1.557.01-.11-.012-1.66.039-.46.042-1.016.206-1.155.71-.219.635-.108 1.334-.146 1.982-.008 2.297-.023 4.596.022 6.886.039.462.202 1.012.699 1.163.632.225 1.284.123 1.936.155 1.424.006-.15.01 1.276.01 1.704.001 4.408-.004 6.107-.018.512-.012 1.184.02 1.585-.405.42-.54.287-1.268.323-1.904.011-2.444.027-4.91-.022-7.357-.05-.402-.17-.863-.575-1.044-.669-.294-1.427-.168-2.126-.206C9.509 2 6.754 2 5 2z" fill="#fff"/><path fill="#fa9381" d="M6 10h7v1H6z"/><circle cy="12.5" cx="12.5" r="3.5" fill="#46a926"/><path overflow="visible" font-weight="400" style="line-height:normal;text-indent:0;text-align:start;text-decoration-line:none;text-decoration-style:solid;text-decoration-color:#000;text-transform:none;white-space:normal;isolation:auto;mix-blend-mode:normal;marker:none" d="M12 10v2h-2v1h2v2h1v-2h2v-1h-2v-2z" color="#000" font-family="sans-serif" fill="#fff"/><path fill="#fa9381" d="M6 8h7v1H6z"/><circle cx="4" cy="9" r="1" fill="#fa9381"/><path fill="#232629" d="M6 4h7v1H6z"/><circle r="1" cy="5" cx="4" fill="#232629"/><path fill="#232629" d="M6 6h7v1H6z"/></svg>
